!!!OTL: SCHOEN GLAENZT DAS MONDENLICHT
!!!ARE: Europa, Mitteleuropa, Deutschland; Italia, Neapel ?
!!!SCT: B0720
!!!YEM: Copyright 1995, estate of Helmut Schaffrath.
**kern
*ICvox
*Ivox
*M3/8
*k[]
*C:
=1
{8G
8.G
16c
=2
8.c
16B
8B}
=3
{8F
8.F
16A
=4
16A
16G
4G}
=5
{8E
8.A
16G
=6
16G
16F#
4F}
=7
{8F
8E
8D
=8
8A
4G}
=9
{8e
8d
8c
=10
16B
16A
4d}
=11
{8d
8c
8A
=12
16F#
16G
4c}
=13
{16e
16c
16c
16G
16G
16E
=14
16F
16d
4d}
=15
{8f
8.A
16B
=16
8d
4c}
=17
{8e
8d
8c
=18
16B
16A
4d}
=19
{8d
8c
8A
=20
16F#
16G
4c}
=21
{16e
16c
16c
16G
16G
16E
=22
16F
16d
4d}
=23
{8d
8.e
16d
=24
8d
4c}
==
!!!AGN: ???
!!!ONB: ESAC (Essen Associative Code) Database: BOEHME
!!!AMT: simple triple
!!!AIN: vox
!!!EED: Helmut Schaffrath
!!!EEV: 1.0
*-
